X:1
T:Swallowed a Fly
M:4/4
L:1/8
K:C
 G| cce ccG| cce c2 c| ddd d2 c| BGG G2 G| ccec-c G|c-c e c2 G| ccec-c G|\
c-c e ccc| ddd ddc| BGG GGG| cce ccG| c2 e c3| ddd d2 c| BGG G2 z|\
